static/assets/template/assets/img/icons/essential/detailed/Download.svg

<svg height="145" viewBox="0 0 151 145" width="151" xmlns="http://www.w3.org/2000/svg"><g fill="none" fill-rule="evenodd"><g transform="translate(1 41)"><path d="m1.5 65.8 15.8-56.6c1.4-5.2 6.1-8.8 11.4-8.8h91.4c5.3 0 10 3.5 11.4 8.7l15.9 57.3" fill-rule="nonzero"/><path d="m147.3 66.4-144-.5 16.5-53c1.3-4.9 6-8.3 11.3-8.3h89.3c5.2 0 9.8 3.3 11.2 8.1z" fill="#add2ff" fill-rule="nonzero"/><path d="m112 4.6c-1.2 11.5-7.7 21.5-16.9 27.6-6 3.9-13.1 6.2-20.8 6.2-19.6 0-35.6-14.8-37.7-33.8z" fill="#91c4ff" fill-rule="nonzero"/><path d="m147.8 91.1c0 6.1-4.9 11-11 11h-125.1c-6.1 0-11-4.9-11-11v-21.2c0-6.1 4.9-11 11-11h125.1c6.1 0 11 4.9 11 11z" fill-rule="nonzero"/><path d="m147.8 91.8c0 5.7-4.6 10.3-10.3 10.3h-122.9c-5.7 0-10.3-4.6-10.3-10.3v-18.1c0-5.7 4.6-10.3 10.3-10.3h122.9c5.7 0 10.3 4.6 10.3 10.3z" fill="#d4e7ff" fill-rule="nonzero"/><g stroke-linecap="round" stroke-linejoin="round" stroke-width="3"><path d="m45.9 58.9h1.1"/><path d="m109.6 102h-97.8c-6.1 0-11-4.9-11-11v-21.2c0-6.1 4.9-11 11-11h22.1"/><path d="m63 58.9h73.9c6.1 0 11 4.9 11 11v21.2c0 6.1-4.9 11-11 11h-16.4"/><path d="m7.7 39.8 9.6-30.6c1.4-5.2 6.1-8.8 11.4-8.8h91.4c5.3 0 10 3.5 11.4 8.7l15.9 57.3"/><path d="m3.7 52.7 1.3-4.3"/><path d="m14.1 71.6v17.7"/><path d="m24.2 71.6v17.7"/><path d="m34.3 71.6v17.7"/><path d="m44.4 71.6v17.7"/></g><circle cx="126" cy="80.5" fill-rule="nonzero" r="10.1"/><path d="m134.6 75.3c.9 1.5 1.4 3.3 1.4 5.2 0 5.6-4.5 10.1-10.1 10.1s-10.1-4.5-10.1-10.1c0-1.5.3-3 1-4.3" stroke-linecap="round" stroke-linejoin="round" stroke-width="3"/><path d="m121.4 71.5c1.4-.7 2.9-1.1 4.6-1.1 1.2 0 2.3.2 3.4.6" stroke-linecap="round" stroke-linejoin="round" stroke-width="3"/></g><g transform="translate(40 2)"><path d="m54.5 64.5c-5.5 3.6-12.1 5.7-19.2 5.7-19.3 0-35-15.6-35-35 0-19.3 15.6-35 35-35 19.3 0 35 15.6 35 35 0 12.2-6.3 23-15.8 29.3" fill-rule="nonzero"/><g stroke-linecap="round" stroke-linejoin="round" stroke-width="3"><path d="m46.3 68.4c-.3.1-.6.2-.9.3-3.2 1-6.6 1.5-10.1 1.5-7.8 0-15-2.5-20.8-6.8"/><path d="m.7 40.4c-.2-1.7-.4-3.4-.4-5.2 0-19.3 15.6-35 35-35 19.3 0 35 15.6 35 35 0 10.8-4.9 20.5-12.7 26.9"/><path d="m6.6 55.2c-.4-.6-.8-1.2-1.1-1.8"/></g><g fill-rule="nonzero" transform="translate(18 13)"><path d="m17.3 42.1c-1.3 0-2.5-.5-3.4-1.4l-10.3-10.3c-1.9-1.9-1.9-4.9 0-6.8.9-.9 2.1-1.4 3.4-1.4s2.5.5 3.4 1.4l2.2 2.2v-18.7c0-2.6 2.1-4.8 4.8-4.8 2.6 0 4.8 2.1 4.8 4.8v18.7l2.2-2.2c.9-.9 2.1-1.4 3.4-1.4s2.5.5 3.4 1.4 1.4 2.1 1.4 3.4-.5 2.5-1.4 3.4l-10.3 10.3c-1.1.9-2.3 1.4-3.6 1.4z"/><path d="m17.3 3.8c1.8 0 3.3 1.5 3.3 3.3v22.4l4.7-4.7c.6-.6 1.5-1 2.3-1s1.7.3 2.3 1c.6.6 1 1.5 1 2.3s-.3 1.7-1 2.3l-10.3 10.3c-.6.6-1.4 1-2.3 1s-1.7-.3-2.3-1l-10.3-10.3c-1.3-1.3-1.3-3.4 0-4.6.6-.6 1.5-1 2.3-1s1.7.3 2.3 1l4.7 4.7v-22.4c0-1.8 1.5-3.3 3.3-3.3zm0-3c-3.5 0-6.3 2.8-6.3 6.3v15.1c-1.1-1-2.5-1.5-4-1.5-1.7 0-3.3.7-4.4 1.8-2.4 2.4-2.4 6.4 0 8.9l10.3 10.3c1.2 1.2 2.8 1.8 4.4 1.8 1.7 0 3.3-.7 4.4-1.8l10.3-10.3c1.2-1.2 1.8-2.8 1.8-4.4 0-1.7-.7-3.3-1.8-4.4-1.2-1.2-2.8-1.8-4.4-1.8-1.5 0-2.9.5-4 1.5v-15.1c0-3.6-2.8-6.4-6.3-6.4z"/></g></g></g></svg>

<?xml version="1.0" encoding="UTF-8"?>
<svg width="151px" height="145px" viewBox="0 0 151 145" version="1.1" xmlns="http://www.w3.org/2000/svg" xmlns:xlink="http://www.w3.org/1999/xlink">
    <!-- Generator: Sketch 51.2 (57519) - http://www.bohemiancoding.com/sketch -->
    <title>Download</title>
    <desc>Created with Sketch.</desc>
    <defs></defs>
    <g id="Page-1" stroke="none" stroke-width="1" fill="none" fill-rule="evenodd">
        <g id="Download" transform="translate(1.000000, 2.000000)">
            <g id="Group" transform="translate(0.000000, 39.000000)">
                <path d="M1.5,65.8 L17.3,9.2 C18.7,4 23.4,0.4 28.7,0.4 L120.1,0.4 C125.4,0.4 130.1,3.9 131.5,9.1 L147.4,66.4" id="Shape" class="fill-neutral" fill-rule="nonzero"></path>
                <path d="M147.3,66.4 L3.3,65.9 L19.8,12.9 C21.1,8 25.8,4.6 31.1,4.6 L120.4,4.6 C125.6,4.6 130.2,7.9 131.6,12.7 L147.3,66.4 Z" id="Shape" fill="#ADD2FF" fill-rule="nonzero"></path>
                <path d="M112,4.6 C110.8,16.1 104.3,26.1 95.1,32.2 C89.1,36.1 82,38.4 74.3,38.4 C54.7,38.4 38.7,23.6 36.6,4.6 L112,4.6 Z" id="Shape" fill="#91C4FF" fill-rule="nonzero"></path>
                <path d="M147.8,91.1 C147.8,97.2 142.9,102.1 136.8,102.1 L11.7,102.1 C5.6,102.1 0.7,97.2 0.7,91.1 L0.7,69.9 C0.7,63.8 5.6,58.9 11.7,58.9 L136.8,58.9 C142.9,58.9 147.8,63.8 147.8,69.9 L147.8,91.1 Z" id="Shape" class="fill-neutral" fill-rule="nonzero"></path>
                <path d="M147.8,91.8 C147.8,97.5 143.2,102.1 137.5,102.1 L14.6,102.1 C8.9,102.1 4.3,97.5 4.3,91.8 L4.3,73.7 C4.3,68 8.9,63.4 14.6,63.4 L137.5,63.4 C143.2,63.4 147.8,68 147.8,73.7 L147.8,91.8 Z" id="Shape" fill="#D4E7FF" fill-rule="nonzero"></path>
                <path d="M45.9,58.9 L47,58.9" id="Shape" class="stroke-primary" stroke-width="3" stroke-linecap="round" stroke-linejoin="round"></path>
                <path d="M109.6,102 L11.8,102 C5.7,102 0.8,97.1 0.8,91 L0.8,69.8 C0.8,63.7 5.7,58.8 11.8,58.8 L33.9,58.8" id="Shape" class="stroke-primary" stroke-width="3" stroke-linecap="round" stroke-linejoin="round"></path>
                <path d="M63,58.9 L136.9,58.9 C143,58.9 147.9,63.8 147.9,69.9 L147.9,91.1 C147.9,97.2 143,102.1 136.9,102.1 L120.5,102.1" id="Shape" class="stroke-primary" stroke-width="3" stroke-linecap="round" stroke-linejoin="round"></path>
                <path d="M7.7,39.8 L17.3,9.2 C18.7,4 23.4,0.4 28.7,0.4 L120.1,0.4 C125.4,0.4 130.1,3.9 131.5,9.1 L147.4,66.4" id="Shape" class="stroke-primary" stroke-width="3" stroke-linecap="round" stroke-linejoin="round"></path>
                <path d="M3.7,52.7 L5,48.4" id="Shape" class="stroke-primary" stroke-width="3" stroke-linecap="round" stroke-linejoin="round"></path>
                <path d="M14.1,71.6 L14.1,89.3" id="Shape" class="stroke-primary" stroke-width="3" stroke-linecap="round" stroke-linejoin="round"></path>
                <path d="M24.2,71.6 L24.2,89.3" id="Shape" class="stroke-primary" stroke-width="3" stroke-linecap="round" stroke-linejoin="round"></path>
                <path d="M34.3,71.6 L34.3,89.3" id="Shape" class="stroke-primary" stroke-width="3" stroke-linecap="round" stroke-linejoin="round"></path>
                <path d="M44.4,71.6 L44.4,89.3" id="Shape" class="stroke-primary" stroke-width="3" stroke-linecap="round" stroke-linejoin="round"></path>
                <circle id="Oval" class="fill-neutral" fill-rule="nonzero" cx="126" cy="80.5" r="10.1"></circle>
                <path d="M134.6,75.3 C135.5,76.8 136,78.6 136,80.5 C136,86.1 131.5,90.6 125.9,90.6 C120.3,90.6 115.8,86.1 115.8,80.5 C115.8,79 116.1,77.5 116.8,76.2" id="Shape" class="stroke-primary" stroke-width="3" stroke-linecap="round" stroke-linejoin="round"></path>
                <path d="M121.4,71.5 C122.8,70.8 124.3,70.4 126,70.4 C127.2,70.4 128.3,70.6 129.4,71" id="Shape" class="stroke-primary" stroke-width="3" stroke-linecap="round" stroke-linejoin="round"></path>
            </g>
            <g id="Group" transform="translate(39.000000, 0.000000)">
                <path d="M54.5,64.5 C49,68.1 42.4,70.2 35.3,70.2 C16,70.2 0.3,54.6 0.3,35.2 C0.3,15.9 15.9,0.2 35.3,0.2 C54.6,0.2 70.3,15.8 70.3,35.2 C70.3,47.4 64,58.2 54.5,64.5" id="Shape" class="fill-primary-500" fill-rule="nonzero"></path>
                <path d="M46.3,68.4 C46,68.5 45.7,68.6 45.4,68.7 C42.2,69.7 38.8,70.2 35.3,70.2 C27.5,70.2 20.3,67.7 14.5,63.4" id="Shape" class="stroke-primary" stroke-width="3" stroke-linecap="round" stroke-linejoin="round"></path>
                <path d="M0.7,40.4 C0.5,38.7 0.3,37 0.3,35.2 C0.3,15.9 15.9,0.2 35.3,0.2 C54.6,0.2 70.3,15.8 70.3,35.2 C70.3,46 65.4,55.7 57.6,62.1" id="Shape" class="stroke-primary" stroke-width="3" stroke-linecap="round" stroke-linejoin="round"></path>
                <path d="M6.6,55.2 C6.2,54.6 5.8,54 5.5,53.4" id="Shape" class="stroke-primary" stroke-width="3" stroke-linecap="round" stroke-linejoin="round"></path>
                <g transform="translate(18.000000, 13.000000)" fill-rule="nonzero" id="Shape">
                    <path d="M17.3,42.1 C16,42.1 14.8,41.6 13.9,40.7 L3.6,30.4 C1.7,28.5 1.7,25.5 3.6,23.6 C4.5,22.7 5.7,22.2 7,22.2 C8.3,22.2 9.5,22.7 10.4,23.6 L12.6,25.8 L12.6,7.1 C12.6,4.5 14.7,2.3 17.4,2.3 C20,2.3 22.2,4.4 22.2,7.1 L22.2,25.8 L24.4,23.6 C25.3,22.7 26.5,22.2 27.8,22.2 C29.1,22.2 30.3,22.7 31.2,23.6 C32.1,24.5 32.6,25.7 32.6,27 C32.6,28.3 32.1,29.5 31.2,30.4 L20.9,40.7 C19.8,41.6 18.6,42.1 17.3,42.1 Z" class="fill-neutral"></path>
                    <path d="M17.3,3.8 C19.1,3.8 20.6,5.3 20.6,7.1 L20.6,29.5 L25.3,24.8 C25.9,24.2 26.8,23.8 27.6,23.8 C28.4,23.8 29.3,24.1 29.9,24.8 C30.5,25.4 30.9,26.3 30.9,27.1 C30.9,27.9 30.6,28.8 29.9,29.4 L19.6,39.7 C19,40.3 18.2,40.7 17.3,40.7 C16.4,40.7 15.6,40.4 15,39.7 L4.7,29.4 C3.4,28.1 3.4,26 4.7,24.8 C5.3,24.2 6.2,23.8 7,23.8 C7.8,23.8 8.7,24.1 9.3,24.8 L14,29.5 L14,7.1 C14,5.3 15.5,3.8 17.3,3.8 Z M17.3,0.8 C13.8,0.8 11,3.6 11,7.1 L11,22.2 C9.9,21.2 8.5,20.7 7,20.7 C5.3,20.7 3.7,21.4 2.6,22.5 C0.2,24.9 0.2,28.9 2.6,31.4 L12.9,41.7 C14.1,42.9 15.7,43.5 17.3,43.5 C19,43.5 20.6,42.8 21.7,41.7 L32,31.4 C33.2,30.2 33.8,28.6 33.8,27 C33.8,25.3 33.1,23.7 32,22.6 C30.8,21.4 29.2,20.8 27.6,20.8 C26.1,20.8 24.7,21.3 23.6,22.3 L23.6,7.2 C23.6,3.6 20.8,0.8 17.3,0.8 Z" class="fill-primary"></path>
                </g>
            </g>
        </g>
    </g>
</svg>
